X:347
M:6/8
L:1/8
K:G
d/c/|BGG DGG|BGB dcB|cAA EAA|cAc edc|BGG DGG|BGB dcB|cBc Adc|
|:d|gdg gdg|gdg bag|=fcf fcf|=fcf agf|egg dgg|cgg Bgg|cBc Adc|BGG G2:|

